!!!!SEGMENT: pl-wtm--iii-42-033--005_kamienski-antoni--marie-valses-valse-no-5.krn
!!!cenid: 18xx:4358
!!!COM: Kamieński, Antoni
!!!COM-rismID: pe50045389
!!!CDT:
!!!CNT: Polish
!!!GTL: Marie-valses
!!!OTL: [Valse] No. 5
!!!OMV: 005
!!!PDT:
!!!AGN: Secular; Waltz
!!!SMS-siglum: PL-Wtm
!!!SMS-shelfmark: III.42.033
!!!SMS-shelfwork: 001-005 G
!!!SMS-variant:
!!!SMS-altvar:
!!!NIFC-rismSourceID: 1001136606
!!!NIFC-rismChildID: 1001136611
!!!NIFC-islandoraID: pl-wtm:23979
!!!URL-pdf-islandora: https://repozytorium.nifc.pl/islandora/object/pl-wtm:23979/datastream/PDF/view
!!!URL-scan: https://polish.musicsources.pl/pl/lokalizacje/galeria/druki-muzyczne/17856/4 @EN{Scan on Polish Music Sources Website} @PL{Skany w portalu Dziedzictwo Muzyki Polskiej w otwartym dostępie}
!!!ONB-nifc: UWAGA: skan 4-6 (razem z kodą).
!!!AIN: 2 piano
!!!key: E
!!!OMD: N.° 5
**kern	**kern	**dynam
*part2	*part1	*part1
*staff2	*staff1	*
*>[A,A1,A,A2,B,B,C,D,D,E]	*>[A,A1,A,A2,B,B,C,D,D,E]	*>[A,A1,A,A2,B,B,C,D,D,E]
*>A	*>A	*>A
*I"PIANO	*I"PIANO	*
*Ipiano	*Ipiano	*
*ICklav	*ICklav	*
*clefF4	*clefG2	*
*k[f#c#g#d#]	*k[f#c#g#d#]	*
*E:	*E:	*
*M3/4	*M3/4	*
=1	=1	=1
.	(8qgg#/	p
4E\	4bb\)	.
.	(8qggn/	.
4e 4B 4G#\	4aa#X\)	.
.	(8qgg#X/	.
4e 4B 4G#\	4bb\)	.
=2	=2	=2
.	(8qgg#/	.
4E\	4bb\)	.
.	(8qaa/	.
4e 4B 4G#\	4aa\)	.
.	(8qgg#/	.
4e 4B 4G#\	4bb\)	.
=3	=3	=3
.	(8qgg#/	.
4BB/	4bb\)	.
.	(8qff#/	.
4d# 4B 4A 4F#\	4aa\)	.
.	(8qee#X/	.
4d# 4B 4A 4F#\	4gg#\)	.
=4	=4	=4
.	(8qff#/	.
4D#\	4aa\)	.
.	(8qgg#/	.
4d# 4B 4A\	4bb\)	.
.	(8qff#/	.
4d# 4B 4A\	4aa\)	.
=5	=5	=5
.	(8qff#/	.
4BB/	4aa\)	.
.	(8qee#X/	.
4d# 4B 4A 4F#\	4gg#\)	.
.	(8qff#/	.
4d# 4B 4A 4F#\	4aa\)	.
=6	=6	=6
.	8qff#/	.
4BB/	4aa\	.
.	8qgg#/	.
4B 4A 4D#\	4bb\	.
.	8qff#/	.
4B 4A 4D#\	4aa\	.
!!LO:LB:g=original
=7	=7	=7
.	(8qff#/	.
4E\	4aa\)	.
.	(8qee/	.
4e 4B 4G#\	4gg#\)	.
.	(8qdd#/	.
4e 4B 4G#\	4ff##X\)	.
=8	=8	=8
.	(8qee/	.
4G#\	4gg#\)	.
.	(8qff#/	.
4e 4B\	4aa\)	.
.	(8qee/	.
4e 4B\	4gg#\)	.
=9	=9	=9
.	(8qgg#/	.
4E\	4bb\)	.
.	(8qggn/	.
4e 4B 4G#\	4aa#X\)	.
.	(8qgg#X/	.
4e 4B 4G#\	4bb\)	.
=10	=10	=10
.	(8qaa/	.
4E\	4ccc#\)	.
.	(8qbb/	.
4e 4c# 4A\	4ddd#\)	.
.	(8qccc#/	.
4e 4c# 4A\	4eee\)	.
=11	=11	=11
.	(8qddd#/	.
4AA\	4fff#\)	.
.	(8qccc#/	.
4A 4F# 4C#\	4eee\)	.
.	(8qbb/	.
4A 4F# 4C#\	4ddd#\)	.
=12	=12	=12
.	(8qaa/	.
4AA\	4ccc#\)	.
.	(8qgg#/	.
4A 4F# 4C#\	4bb\)	.
.	8qff#/	.
4A 4F# 4C#\	4aa\	.
!!LO:LB:g=original
=13	=13	=13
.	(8qee/	.
4E\	4gg#\)	.
.	(8qff#/	.
4B 4G#\	4aa\)	.
.	(8qgg#/	.
4B 4G#\	4bb\)	.
=14	=14	=14
.	(8qff#/	.
4BB/	4aa\)	.
.	(8qee/	.
4B 4A 4F# 4D#\	4gg#\)	.
.	8qb/	.
4B 4A 4F# 4D#\	4ff#\	.
=15	=15	=15
.	(>8qg#/	.
4BB/	4ee\)	.
.	(>8qg#/	.
4B 4G# 4E\	4ee\)	.
!	!LO:TX:a:t=dis	!
.	(>8qa/	.
4B 4A 4F# 4D#\	4dd#\)	.
=16	=16	=16
!!LO:TX:a:t=1a
*>A1	*>A1	*>A1
.	(8qg#/	.
4B 4G# 4E\	8ee\L)	.
.	8dd#\	.
4r	8ff#\	.
.	8ee\	.
4r	8dd#\	.
.	8cc#\J	.
=17:|!	=17:|!	=17:|!
!!LO:TX:a:t=2a
*>A2	*>A2	*>A2
.	8qg#/	.
2B 2G# 2E\	2ee\	.
4EE/	4r	.
!!LO:LB:g=original
=18!|:	=18!|:	=18!|:
*>B	*>B	*>B
4BB/	2ccc# 2cc#\	>
4d# 4B 4A 4F#\	.	.
4d# 4B 4A 4F#\	4bb 4b\	]
=19	=19	=1
4BB/	4r	.
4B 4A 4D#\	4ffn 4fn\	.
4B 4A 4D#\	4ff#X 4f#X\	.
=20	=20	=20
4E\	2aa 2a\	>
4e 4B 4G#\	.	.
4e 4B 4G#\	4gg# 4g#\	]
=21	=21	=21
4BB/	4r	.
4B 4G# 4E\	4ff##X 4f##X\	.
4B 4G# 4E\	4gg# 4g#\	.
=22	=22	=22
4BB/	2ddd# 2dd#\	>
4B 4A 4F#\	.	.
4B 4A 4F#\	4ccc# 4cc#\	]
=23	=23	=23
4D#/	4r	.
4B 4A 4F#\	4bb 4b\	.
4B 4A 4F#\	4aa 4a\	.
!!LO:LB:g=original
=24	=24	=24
4E\	2aa 2a\	>
4B 4G#\	.	.
4B 4G#\	4gg# 4g#\	]
=25	=25	=25
4BB/	4r	.
4B 4G# 4E\	4ff##X 4f##X\	.
4B 4G# 4E\	4gg# 4g#\	.
=26	=26	=26
4E\	2fff# 2ff#\	>
4e 4B 4G#\	.	.
4e 4B 4G#\	4eee 4ee\	]
=27	=27	=27
4BB/	4r	.
4B 4G# 4E\	4bb 4b\	.
4B 4G# 4E\	4cccn 4ccn\	.
=28	=28	=28
4AA/	2ddd# 2dd#\	>
4A 4F# 4C#\	.	.
4A 4F# 4C#\	4ccc# 4cc#\	]
!!LO:PB:g=original
=29	=29	=29
4C#/	4r	.
4F# 4D#\	4ee#X 4e#X\	.
4F# 4D#\	4ff# 4f#\	.
=30	=30	=30
4BB/	4aa#X 4a#X\	<
4B 4A 4D#\	4.bb 4.b\	.
4B 4A 4D#\	.	.
.	8bb#X 8b#X\	[
=31	=31	=31
4D#\	4ccc# 4cc#\	<
4B 4A 4F#\	4.ccc##X 4.cc##X\	.
4B 4A 4F#\	.	.
.	8ddd# 8dd#\	[
=32	=32	=32
4BB/	4ddd# 4dd#\	>
4B 4A 4D#\	4.ggg# 4.gg#\	.
4B 4A 4D#\	.	.
.	8fff# 8ff#\	]
=33	=33	=33
2B 2G# 2E\	2eee 2ff#^^\	.
4EE/	4r	.
!!LO:LB:g=original
=34:|!	=34:|!	=34:|!
*>C	*>C	*>C
!!!OMD: CODA
!	!LO:TX:b:i:t=ben staccato.	!
4BB/	8g#L 8e/|	.
.	8g#J 8e/|	.
4B 4G# 4E\	8f##XL 8d#/|	.
.	8f##J 8d#/|	.
4B 4G# 4E\	8g#L 8e/|	.
.	8g#J 8e/|	.
=35	=35	=35
4BB/	8g#L 8e/|	.
.	8g#J 8e/|	.
4B 4G# 4E\	8aL 8f#/|	.
.	8aJ 8f#/|	.
4B 4G# 4E\	8bL 8g#/|	.
.	8bJ 8g#/|	.
=36	=36	=36
4BB/	8dd#L 8b\|	.
.	8dd#J 8b\|	.
4B 4A 4D#\	8cc#L 8a\|	.
.	8cc#J 8a\|	.
4B 4A 4D#\	8bL 8g#\|	.
.	8bJ 8g#\|	.
!!LO:LB:g=original
=37	=37	=37
4D#\	8cc#L 8a\|	.
.	8cc#J 8a\|	.
4B 4A 4F#\	8bL 8g#\|	.
.	8bJ 8g#\|	.
4B 4A 4F#\	8aL 8f#\|	.
.	8aJ 8f#\|	.
=38	=38	=38
4D#/	8aL 8f#/|	.
.	8aJ 8f#/|	.
4B 4A 4F#\	8g#L 8e#X/|	.
.	8g#J 8e#/|	.
4B 4A 4F#\	8aL 8f#/|	.
.	8aJ 8f#/|	.
=39	=39	=39
4BB/	8dd#L 8b\|	.
.	8dd#J 8b\|	.
4B 4A 4F# 4D#\	8cc#L 8a\|	.
.	8cc#J 8a\|	.
4B 4A 4F# 4D#\	8b#XL 8g#\|	.
.	8b#J 8g#\|	.
=40	=40	=40
4D#/	8ff#L 8dd#\|	.
.	8ff#J 8dd#\|	.
4d# 4B 4A\	8eeL 8cc#\|	.
.	8eeJ 8cc#\|	.
4d# 4B 4A\	8dd#L 8b\|	.
.	8dd#J 8b\|	.
!!LO:LB:g=original
=41	=41	=41
4BB/	8cc#L 8a\|	>
.	8cc#J 8a\|	.
4B 4A 4D#\	8bL 8g#\|	.
.	8bJ 8g#\|	.
4B 4A 4D#\	8aL 8f#\|	.
.	8aJ 8f#\|	]
=42	=42	=42
4BB/	8g#L 8e/|	.
.	8g#J 8e/|	.
4B 4G# 4E\	8f##XL 8d#/|	.
.	8f##J 8d#/|	.
4B 4G# 4E\	8g#L 8e/|	.
.	8g#J 8e/|	.
=43	=43	=43
4BB/	8g#L 8e/|	<
.	8g#J 8e/|	.
4B 4G# 4E\	8aL 8f#/|	.
.	8aJ 8f#/|	.
4B 4G# 4E\	8bL 8g#/|	.
.	8bJ 8g#/|	[[
=44	=44	=44
4AA/	8dd#L 8b\|	.
.	8dd#J 8b\|	.
4A 4F# 4C#\	8cc#L 8a\|	.
.	8cc#J 8a\|	.
4A 4F# 4C#\	8b#XL 8g#\|	.
.	8b#J 8g#\|	.
=45	=45	=45
4BB/	8aaL 8ff#\|	>
.	8gg# 8ee\|	.
4B 4A 4F# 4D#\	8ff# 8dd#\|	.
.	8ee 8cc#\|	.
4B 4A 4F# 4D#\	8dd# 8b\|	.
.	8cc#J 8a\|	]
!!LO:LB:g=original
=46	=46	=46
4E\	(8cc#L 8a\	.
.	8b 8g#\	.
4e 4B 4G#\	8a#X 8f##X\	.
.	8b 8g#\	.
4e 4B 4G#\	8cc# 8a#\	.
.	8dd#J 8b\)	.
=47	=47	=47
4BB/	(8eeL 8a\	.
.	8dd#J 8a\	.
4d# 4B 4A 4F#\	4.cc# 4.a\	.
4d# 4B 4A 4F#\	.	.
.	8dd# 8b\)	.
=48	=48	=48
4D#\	2gg# 2b\	>
4d# 4B 4A\	.	.
4d# 4B 4A\	4ff# 4a\	]
=49	=49	=49
2e 2B 2G# 2E\	2ee 2g#\	.
4r;	4r;	.
=50!|:	=50!|:	=50!|:
*>D	*>D	*>D
!	!LO:TUP:a:problem:klamra łukowa	!
4E\	12gg#\L	.
.	12aa\	.
.	12gg#\J	.
4g# 4e 4B\	(4ff#'\	.
!	!LO:TX:b:B:t=V&colon;S&colon;	!
4g# 4e 4B\	4gg#'\)	.
!!LO:PB:g=original
=51	=51	=51
4BB/	2bb^^\	.
4a 4d# 4B\	.	.
4a 4d# 4B\	4r	.
=52	=52	=52
!	!LO:TUP:a:problem:klamra łukowa	!
4D#/	12ff#\L	.
.	12gg#\	.
.	12ff#\J	.
4f# 4B 4A\	(4ee#X'\	.
4f# 4B 4A\	4ff#'\)	.
=53	=53	=53
4BB/	2bb^^\	.
4a 4d# 4B\	.	.
4a 4d# 4B\	4r	.
=54	=54	=54
!	!LO:TUP:a:problem:klamra łukowa	!
4D#/	12b\L	.
.	12cc#\	.
.	12b\J	.
4d# 4B 4A\	(4a#X'\	.
4d# 4B 4A\	4b'\)	.
=55	=55	=55
4BB/	4dd#\	.
4d# 4B 4A 4F#\	(4.gg#\	>
4d# 4B 4A 4F#\	.	.
.	8ff#\)	]
!!LO:LB:g=original
=56	=56	=56
!	!LO:TUP:a:problem:klamra łukowa	!
4E\	12ff#\L	.
.	12gg#\	.
.	12ff#\J	.
4e 4B 4G#\	4ee\|	.
4e 4B 4G#\	4dd#\|	.
=57	=57	=57
4G#\	(2ff#\	>
4e 4B\	.	.
4e 4B\	4ee\)	]
=58	=58	=58
!	!LO:TUP:a:problem:klamra łukowa	!
4C#/	12ee\L	.
.	12ff#\	.
.	12ee\J	.
4e 4c# 4G#\	4dd#\|	.
4e 4c# 4G#\	4ee\|	.
=59	=59	=59
4C#/	2eee 2ee^^\	.
4c# 4G# 4E\	.	.
4c# 4G# 4E\	4r	.
=60	=60	=60
!	!LO:TUP:a:problem:klamra łukowa	!
4AA/	12cc#\L	.
.	12dd#\	.
.	12cc#\J	.
4A 4F# 4C#\	4b#X\|	.
4A 4F# 4C#\	4cc#\|	.
!!LO:LB:g=original
=61	=61	=61
4AA/	2ccc# 2cc#^^\	.
4F# 4C#/	.	.
4F# 4C#/	4r	.
=62	=62	=62
4D#\	4bb 4b\	<
4d# 4B 4A 4F#\	4bb#X 4b#X\	.
4d# 4B 4A 4F#\	4ccc# 4cc#\	[
=63	=63	=63
4BB/	4ddd# 4dd#\	.
4f# 4B 4A\	4.ggg# 4.gg#\	>
4f# 4B 4A\	.	.
.	8fff# 8ff#\	]
=64	=64	=64
4e 4B 4G#\	4eee 4ee^^\	.
4EE/	4r	.
4r	4b\	.
=65:|!	=65:|!	=65:|!
*>E	*>E	*>E
4E\	(8b\L|	.
.	8ee\|	.
4g# 4e 4B\	8gg#\|	.
.	8bb\|	.
4g# 4e 4B\	8eee\|	.
.	8ggg#\J)|	.
!!LO:LB:g=original
=66	=66	=66
4BB/	4ggg#tt\	.
4a 4d# 4B\	4fff#\|	>
4a 4d# 4B\	4fff#\|	]
=67	=67	=67
4D#/	(8a\L	.
.	8dd#\	.
4f# 4B 4A\	8ff#\	.
.	8aa\	.
4f# 4B 4A\	8ddd#\	.
.	8fff#\J)	.
=68	=68	=68
4E\	4fff#TT\	.
4e 4B 4G#\	4eee\|	>
4e 4B 4G#\	4eee\|	]
=69	=69	=69
4E\	(8g#\L	.
.	8b\	.
4e 4B 4G#\	8ee\	.
.	8gg#\	.
4e 4B 4G#\	8bb\	.
.	8eee\J)	.
=70	=70	=70
4BB/	4eeeTT\	.
4f# 4B 4A\	4ddd#\	.
4f# 4B 4A\	4ddd#\	.
!!LO:LB:g=original
=71	=71	=71
4F#\	4ddd#tt\	.
4d# 4B 4A\	4ccc#\	.
4d# 4B 4A\	4ccc#\	.
=72	=72	=72
4E\	4ccc#TT\	.
4e 4B 4G#\	4bb\	.
4e 4B 4G#\	4bb\	.
=73	=73	=73
4E\	(8b\L	.
.	8ee\	.
4g# 4e 4B\	8gg#\	.
.	8bb\	.
4g# 4e 4B\	8eee\	.
.	8ggg#\J)	.
=74	=74	=74
4BB/	4ggg#tt\	.
4a 4d# 4B\	4fff#\	.
4a 4d# 4B\	4fff#\	.
=75	=75	=75
4D#\	(8a\L	.
.	8dd#\	.
4f# 4B 4A\	8ff#\	.
.	8aa\	.
4f# 4B 4A\	8ddd#\	.
.	8fff#\J)	.
!!LO:PB:g=original
=76	=76	=76
4E\	4fff#TT\	.
4e 4B 4G#\	4eee\	.
4e 4B 4G#\	4eee\	.
=77	=77	=77
4C#/	(8ee\L	.
.	8gg#\	.
4c# 4G# 4E\	8bb\	.
.	8eee\	.
*	*8va	*
4c# 4G# 4E\	8ggg#\	.
.	8eeee\J)	.
=78	=78	=78
4AA/	4dddd#tt\	.
4A 4F# 4C#\	4cccc#\	.
4A 4F# 4C#\	4cccc#\	.
=79	=79	=79
4BB/	4cccc#TT\	.
4B 4A 4F#\	4.bbb\	.
4B 4A 4F#\	.	.
.	8fff# 8ddd#\	.
=80	=80	=80
4e 4B 4G# 4E\	4eee\	.
4.E 4.EE/	4.eeee 4.ggg# 4.eee\	.
8r	8r	.
*	*X8va	*
!!LO:LB:g=original
=81||	=81||	=81||
!	!	!LO:DY:t=p.
4E\	(8b\L	p
.	8bb\)	.
4B\	(8cc#\	.
.	8bb\)	.
4e\	(8dd#\	.
.	8bb\J)	.
=82	=82	=82
4G#\	(8ee\L	.
.	8bb\)	.
4B\	(8ff#\	.
.	8bb\)	.
4e\	(8gg#\	.
.	8bb\J)	.
=83	=83	=83
4BB/	(8aa\L	.
.	8bb\)	.
4A\	(8gg#\	.
.	8bb\)	.
4B\	(8ff#\	.
.	8bb\J)	.
=84	=84	=84
4D#\	(8b\L	.
.	8bb\)	.
4A\	(8gg#\	.
.	8bb\)	.
4B\	(8ff#\	.
.	8bb\J)	.
=85	=85	=85
4E\	(8b\L	.
.	8bb\)	.
4B\	(8cc#\	.
.	8bb\)	.
4e\	(8dd#\	.
.	8bb\J)	.
!!LO:LB:g=original
=86	=86	=86
4G#\	(8ee\L	.
.	8bb\)	.
4B\	(8ff#\	.
.	8bb\)	.
4e\	(8gg#\	.
.	8bb\J)	.
=87	=87	=87
4BB/	(8aa\L	.
.	8bb\)	.
4A\	(8gg#\	.
.	8bb\)	.
4B\	(8ff#\	.
.	8bb\J)	.
=88	=88	=88
4D#\	(8b\L	.
.	8bb\)	.
4A\	(8gg#\	.
.	8bb\)	.
4B\	(8ff#\	.
.	8bb\J)	.
=89	=89	=89
4E\	(8ee\L	.
.	8bb\)	.
4G#\	(8gg#\	.
.	8bb\)	.
4c#\	(8ee\	.
.	8eee\J)	.
=90	=90	=90
4E\	(8ccc#\L	>
.	8eee\)	.
4G#\	(8bb\	.
.	8ddd#\)	.
4c#\	(8aa\	.
.	8ccc#\J)	]
!!LO:LB:g=original
=91	=91	=91
4BB\	(8aa\L	>
.	8ccc#\)	.
4E\	(8gg#\	.
.	8bb\)	.
4G#\	(8ee\	.
.	8gg#\J)	]
=92	=92	=92
4BB\	(8gg#\L	>
.	8bb\)	.
4A\	(8ff#\	.
.	8aa\)	.
4B\	(8b\	.
.	8ff#\J)	]
=93	=93	=93
4E\	(8ee\L	<
.	8eee\)	.
4B\	(8gg#\	.
.	8eee\)	.
4e\	(8bb\	.
.	8eee\J)	[
=94	=94	=94
4E\	(8ccc#\L	>
.	8eee\)	.
4G#\	(8bb\	.
.	8ddd#\)	.
4c#\	(8aa\	.
.	8ccc#\J)	]
=95	=95	=95
4D#\	(8gg#\L	.
.	8bb\)	.
4A\	(8ff##X\	.
.	8aa#X\)	.
4B\	(8ff#X\	.
.	8aan\J)	.
!!LO:LB:g=original
=96	=96	=96
4BB\	(8b\L	.
.	8gg#\)	.
4A\	(8a#X\	.
.	8ff##X\)	.
4B\	(8a#\	.
!	!LO:N:acc=n#	!
.	8ff#X\J)	.
=97	=97	=97
!	!	!LO:DY:rj
8.eL 8.B 8.G# 8.E\	8.eeL 8.g#\	ff
16eJk 16E\	16eeeJk 16ee\	.
4B 4BB\	4bb 4b\	.
4G# 4GG#\	4gg# 4g#\	.
=98	=98	=98
2E 2EE\	2ee 2b 2g# 2e/	ff
4r	4r	.
=99	=99	=99
2e 2B 2E\	2gg# 2ee 2b 2g#\	.
8r	8r	.
8E 8EE\	8e 8B< 8G#</	.
=100	=100	=100
2E 2EE\	2e 2B< 2G#</	.
4r	4r	.
==	==	==
*-	*-	*-
!!!system-decoration: {(*)}
!!!RDF**kern: > = above
!!!RDF**kern: < = below
!!!RDF**kern: | = vertical stroke
!!!ENC: Berenika Jozajtis
!!!END: 2023-07-10
!!!ENC: Marta Lawrence
!!!END: 2023-07-17
!!!YEC: Copyright 2022 Narodowy Instytut Fryderyka Chopina (https://polishscores.org)
!!!YEM: License CC-BY-4.0 (https://creativecommons.org/licenses/by/4.0)
